src/pos-icons/label-off.svg

<svg height="24" viewBox="0 0 24 24" width="24" xmlns="http://www.w3.org/2000/svg"><path d="m2 4.27 1.28-1.27 16.72 16.72-1.27 1.28-2.1-2.1c-.2.06-.41.1-.63.1h-11a2 2 0 0 1 -2-2v-10c0-.5.17-.93.46-1.27zm15.63 1.57 4.37 6.16-3 4.2-11.17-11.2h8.17c.67 0 1.27.33 1.63.84z"/></svg>

<?xml version="1.0" encoding="UTF-8"?><!DOCTYPE svg PUBLIC "-//W3C//DTD SVG 1.1//EN" "http://www.w3.org/Graphics/SVG/1.1/DTD/svg11.dtd"><svg xmlns="http://www.w3.org/2000/svg" xmlns:xlink="http://www.w3.org/1999/xlink" version="1.1" id="mdi-label-off" width="24" height="24" viewBox="0 0 24 24"><path d="M2,4.27L3.28,3L20,19.72L18.73,21L16.63,18.9C16.43,18.96 16.22,19 16,19H5A2,2 0 0,1 3,17V7C3,6.5 3.17,6.07 3.46,5.73L2,4.27M17.63,5.84L22,12L19,16.2L7.83,5H16C16.67,5 17.27,5.33 17.63,5.84Z" /></svg>
